src/assets/toolkit/icons/twitter.svg

<?xml version="1.0" encoding="UTF-8" standalone="no"?>
<svg width="24px" height="24px" viewBox="0 0 24 24" version="1.1" xmlns="http://www.w3.org/2000/svg" xmlns:xlink="http://www.w3.org/1999/xlink" xmlns:sketch="http://www.bohemiancoding.com/sketch/ns">
    <!-- Generator: Sketch 3.3.3 (12072) - http://www.bohemiancoding.com/sketch -->
    <title>twitter</title>
    <desc>Created with Sketch.</desc>
    <defs></defs>
    <g id="Page-1" stroke="none" stroke-width="1" fill="none" fill-rule="evenodd" sketch:type="MSPage">
        <g id="twitter" sketch:type="MSArtboardGroup" fill="currentColor">
            <path d="M24,4.30887743 C23.1169538,4.7004938 22.1679798,4.96517064 21.1719522,5.08420937 C22.1886097,4.47479425 22.9692966,3.50984308 23.3369472,2.36010095 C22.385603,2.92430594 21.3318117,3.33409415 20.2102491,3.55496543 C19.3120158,2.59800285 18.0323494,2 16.6161747,2 C13.8968068,2 11.6921321,4.20458685 11.6921321,6.92377922 C11.6921321,7.30968945 11.7357621,7.68550422 11.8196862,8.04586854 C7.72742236,7.8405355 4.09928673,5.88025897 1.67075606,2.90130583 C1.24692198,3.62853067 1.00410403,4.47435532 1.00410403,5.37671458 C1.00410403,7.08495556 1.8734555,8.59207725 3.19464501,9.47503566 C2.3874465,9.44948974 1.62826731,9.22800395 0.964336662,8.85921211 C0.963985515,8.8797542 0.963985515,8.90038407 0.963985515,8.92110172 C0.963985515,11.3067925 2.66125315,13.2969165 4.91377154,13.7491935 C4.50055964,13.861736 4.06557665,13.9218699 3.61646,13.9218699 C3.29919895,13.9218699 2.99071656,13.8910567 2.69013497,13.8335565 C3.3166685,15.7897948 5.13508175,17.2133436 7.28971799,17.2531109 C5.60456491,18.5736859 3.48144409,19.3608691 1.17458576,19.3608691 C0.777175464,19.3608691 0.385207945,19.3376056 0,19.2921321 C2.17904093,20.6891693 4.76725557,21.5042686 7.54789861,21.5042686 C16.6046746,21.5042686 21.5572479,14.0014046 21.5572479,7.49474377 C21.5572479,7.28124657 21.5525074,7.0688906 21.5430264,6.85776363 C22.5049929,6.16354658 23.3398442,5.29630199 24,4.30887743" id="bird" sketch:type="MSShapeGroup"></path>
        </g>
    </g>
</svg>

<svg xmlns="http://www.w3.org/2000/svg" viewBox="0 0 24 24">
  <path d="M24,4.31a9.85,9.85,0,0,1-2.83.78,4.94,4.94,0,0,0,2.17-2.72,9.86,9.86,0,0,1-3.13,1.19A4.93,4.93,0,0,0,11.82,8,14,14,0,0,1,1.67,2.9,4.93,4.93,0,0,0,3.19,9.48,4.9,4.9,0,0,1,1,8.86V8.92a4.93,4.93,0,0,0,3.95,4.83,4.94,4.94,0,0,1-2.22.08,4.93,4.93,0,0,0,4.6,3.42,9.88,9.88,0,0,1-6.12,2.11A10,10,0,0,1,0,19.29,13.94,13.94,0,0,0,7.55,21.5a13.91,13.91,0,0,0,14-14q0-.32,0-0.64A10,10,0,0,0,24,4.31"/>
</svg>
